client/public/assets/icons/action/new_custom3.svg

<?xml version="1.0"?><svg xmlns="http://www.w3.org/2000/svg" width="52" height="52" viewBox="0 0 52 52"><g fill="#fff"><path d="m26 16.4c-5.3 0-9.6 4.3-9.6 9.6s4.3 9.6 9.6 9.6 9.6-4.3 9.6-9.6-4.3-9.6-9.6-9.6z m24 9.6c0-2.8-6.7-4.2-7.8-6.7-1-2.6 2.7-8.3 0.8-10.3s-7.7 1.8-10.2 0.7c-2.6-1-4-7.7-6.8-7.7s-4.2 6.7-6.7 7.8c-2.6 1-8.3-2.7-10.3-0.8s1.8 7.7 0.7 10.2c-1 2.6-7.7 4-7.7 6.8s6.7 4.2 7.8 6.7c1 2.6-2.7 8.3-0.8 10.3 1.9 1.9 7.7-1.8 10.2-0.7 2.5 1 3.9 7.8 6.7 7.8s4.2-6.7 6.7-7.8c2.6-1 8.3 2.6 10.2 0.7 1.9-1.9-1.8-7.7-0.7-10.2 1.2-2.6 7.9-4 7.9-6.8z m-24 14.4c-7.9 0-14.4-6.5-14.4-14.4s6.5-14.4 14.4-14.4 14.4 6.5 14.4 14.4-6.5 14.4-14.4 14.4z"></path></g></svg>

<?xml version="1.0" encoding="utf-8"?>
<!-- Generator: Adobe Illustrator 18.1.1, SVG Export Plug-In . SVG Version: 6.00 Build 0)  -->
<svg version="1.1" id="Layer_1" xmlns="http://www.w3.org/2000/svg" xmlns:xlink="http://www.w3.org/1999/xlink" x="0px" y="0px"
	 width="52px" height="52px" viewBox="0 0 52 52" enable-background="new 0 0 52 52" xml:space="preserve">
<g>
	<path fill="#FFFFFF" d="M26,16.4c-5.3,0-9.6,4.3-9.6,9.6s4.3,9.6,9.6,9.6s9.6-4.3,9.6-9.6S31.3,16.4,26,16.4z"/>
	<path fill="#FFFFFF" d="M50,26c0-2.8-6.7-4.2-7.8-6.7C41.2,16.7,44.9,11,43,9s-7.7,1.8-10.2,0.7C30.2,8.7,28.8,2,26,2
		s-4.2,6.7-6.7,7.8C16.7,10.8,11,7.1,9,9s1.8,7.7,0.7,10.2C8.7,21.8,2,23.2,2,26s6.7,4.2,7.8,6.7C10.8,35.3,7.1,41,9,43
		c1.9,1.9,7.7-1.8,10.2-0.7c2.5,1,3.9,7.8,6.7,7.8s4.2-6.7,6.7-7.8c2.6-1,8.3,2.6,10.2,0.7c1.9-1.9-1.8-7.7-0.7-10.2
		C43.3,30.2,50,28.8,50,26z M26,40.4c-7.9,0-14.4-6.5-14.4-14.4S18.1,11.6,26,11.6S40.4,18.1,40.4,26S33.9,40.4,26,40.4z"/>
</g>
</svg>
